X:315
T: Ha'penny Bridge
C: BB
R: reel
Q: 1/8=350
M: 4/4
L: 1/8
K: G
A|"G"BGFG Bded|"Em"BE (3EDE GEEA|"G"BGBd "C"ecBc|"G"dBGB "D"AdcA |
"G"BGFG Bded|"Em"BE (3EDE dE (3EDE|"C"ecBc "G"dBGB|"D"AGFA "G"BG G :|
A|"G"Bd (3d^cd "Em"edgd|"C"ecef "G"gabg|"D"afdc "G"Bdgd|"Em"egdB "D7"AdcA |
"G"Bd (3d^cd "Em"edgd|"C"ecef "G"gaba|"G"gfgd "Am"eage|"D"dcAc "G"BG G :|

%%%%%%%%%%%%%%%%%%%%%%%%%%%%%%%%%%%%%%%%%%%

